; generated by PrusaSlicer 2.6.1+win64 on 2024-02-18 at 17:23:04 UTC

; 

; external perimeters extrusion width = 0.45mm
; perimeters extrusion width = 0.45mm
; infill extrusion width = 0.45mm
; solid infill extrusion width = 0.45mm
; top infill extrusion width = 0.40mm
; first layer extrusion width = 0.42mm

;TYPE:Custom
G28 ; home all axis
G90 ; use absolute coordinates
M83 ; extruder relative mode
G0 X0 Y0 ; move to the center of print bed
M104 S185 ; set extruder temp
M140 S60 ; set bed temp
M190 S60 ; wait for bed temp
M109 S185 ; wait for extruder temp
G1 Z50 F500
G21 ; set units to millimeters
G90 ; use absolute coordinates
M83 ; use relative distances for extrusion
; Filament gcode
M107
;LAYER_CHANGE
;Z:0.2
;HEIGHT:0.2
;BEFORE_LAYER_CHANGE
G92 E0
;0.2
G1 E-7 F1500
G1 Z1.2 F9000
;AFTER_LAYER_CHANGE
;0.2
G1 X25.027 Y31.474
G1 Z.2
G1 E7 F1500
M204 P1000
;TYPE:Skirt/Brim
;WIDTH:0.42
G1 F1200
G1 X5.693 Y46.847 E.77448
G1 X3.176 Y48.34 E.09176
G1 X-1 Y49.184 E.13358
G1 X-9.584 Y49.153 E.26915
G1 X-11.106 Y48.944 E.04817
G1 X-12.466 Y48.579 E.04415
G1 X-13.889 Y47.999 E.04818
G1 X-15.225 Y47.238 E.04821
G1 X-16.548 Y46.223 E.05228
G1 X-56.038 Y6.726 E1.75121
G1 X-57.805 Y4.393 E.09176
G1 X-58.879 Y1.671 E.09175
G1 X-59.184 Y-.875 E.0804
G1 X-59.184 Y-7.75 E.21556
G1 X-59.023 Y-9.719 E.06194
G1 X-58.68 Y-11.223 E.04837
G1 X-58.217 Y-12.516 E.04306
G1 X-57.612 Y-13.75 E.04309
G1 X-56.874 Y-14.908 E.04305
G1 X-56.122 Y-15.851 E.03782
G1 X-55.031 Y-16.942 E.04838
G1 X-15.225 Y-47.238 E1.56846
G1 X-13.889 Y-47.999 E.04821
G1 X-12.466 Y-48.579 E.04818
G1 X-11.106 Y-48.944 E.04415
G1 X-9.584 Y-49.153 E.04817
G1 X-1 Y-49.184 E.26915
G1 X1.899 Y-48.786 E.09175
G1 X4.557 Y-47.637 E.09079
G1 X53.285 Y-18.227 E1.78454
G1 X55.031 Y-16.942 E.06797
G1 X56.01 Y-15.977 E.0431
G1 X56.971 Y-14.771 E.04835
G1 X57.612 Y-13.75 E.0378
G1 X58.217 Y-12.516 E.04309
G1 X58.726 Y-11.061 E.04833
G1 X59.023 Y-9.719 E.0431
G1 X59.167 Y-8.353 E.04307
G1 X59.184 Y-.875 E.23447
G1 X58.786 Y2.024 E.09175
G1 X57.621 Y4.709 E.09177
G1 X55.123 Y7.542 E.11843
G1 X25.074 Y31.437 E1.20374
M204 P1500
G1 X24.839 Y31.141 F9000
M204 P1000
G1 F1200
G1 X5.459 Y46.552 E.77635
G1 X2.983 Y48.012 E.09012
G1 X-1 Y48.807 E.12735
G1 X-9.559 Y48.776 E.26836
G1 X-11.033 Y48.574 E.04665
G1 X-12.345 Y48.222 E.04259
G1 X-13.723 Y47.661 E.04665
G1 X-15.015 Y46.924 E.04664
G1 X-16.299 Y45.939 E.05074
G1 X-55.771 Y6.459 E1.75043
G1 X-57.502 Y4.164 E.09013
G1 X-58.536 Y1.482 E.09013
G1 X-58.807 Y-.875 E.07439
G1 X-58.807 Y-7.75 E.21556
G1 X-58.651 Y-9.656 E.05996
G1 X-58.317 Y-11.118 E.04702
G1 X-57.869 Y-12.372 E.04175
G1 X-57.282 Y-13.568 E.04177
G1 X-56.566 Y-14.69 E.04173
G1 X-55.84 Y-15.6 E.0365
G1 X-54.78 Y-16.661 E.04702
G1 X-15.015 Y-46.924 E1.56681
G1 X-13.722 Y-47.661 E.04666
G1 X-12.345 Y-48.222 E.04662
G1 X-11.033 Y-48.574 E.04259
G1 X-9.559 Y-48.776 E.04665
G1 X-1 Y-48.807 E.26836
G1 X1.847 Y-48.409 E.09013
G1 X4.362 Y-47.314 E.08601
G1 X53.09 Y-17.904 E1.78454
G1 X54.78 Y-16.661 E.06578
G1 X55.728 Y-15.725 E.04177
G1 X56.663 Y-14.553 E.04701
G1 X57.282 Y-13.568 E.03648
G1 X57.869 Y-12.372 E.04177
G1 X58.364 Y-10.957 E.047
G1 X58.651 Y-9.656 E.04177
G1 X58.791 Y-8.332 E.04174
G1 X58.807 Y-.875 E.23381
G1 X58.409 Y1.972 E.09013
G1 X57.245 Y4.6 E.09012
G1 X54.889 Y7.247 E.11111
G1 X24.886 Y31.104 E1.20187
M204 P1500
G1 E-4.9 F1500
;WIPE_START
G1 F7200
G1 X16.581 Y37.708 E-2.1
;WIPE_END
G1 Z1.4 F9000
G1 X35.841 Y-7.643
G1 Z.2
G1 E7 F1500
M204 P1000
;TYPE:Perimeter
;WIDTH:0.419999
G1 F1200
G1 X35.452 Y-7.837 E.01363
G1 X30.828 Y-7.837 E.14498
G1 X30.73 Y-7.829 E.00308
G1 X30.257 Y-7.654 E.01581
G1 X30.079 Y-7.484 E.00772
;WIDTH:0.420736
G1 X29.936 Y-7.249 E.00864
G1 X29.799 Y-7.463 E.00798
;WIDTH:0.419999
G1 X29.615 Y-7.637 E.00794
G1 X29.222 Y-7.805 E.0134
G1 X28.748 Y-7.829 E.01488
G1 X28.379 Y-7.723 E.01204
G1 X28.079 Y-7.484 E.01203
;WIDTH:0.425853
G1 X27.931 Y-7.262 E.0085
G1 X27.799 Y-7.463 E.00766
;WIDTH:0.419999
G1 X27.614 Y-7.637 E.00796
G1 X27.222 Y-7.805 E.01337
G1 X26.748 Y-7.829 E.01488
G1 X26.379 Y-7.723 E.01204
G1 X26.079 Y-7.484 E.01203
;WIDTH:0.425853
G1 X25.931 Y-7.262 E.0085
G1 X25.799 Y-7.463 E.00766
;WIDTH:0.419999
G1 X25.643 Y-7.619 E.00692
G1 X25.302 Y-7.795 E.01203
G1 X25.032 Y-7.837 E.00857
G1 X15.828 Y-7.837 E.28858
G1 X15.43 Y-7.741 E.01284
G1 X15.209 Y-7.612 E.00802
G1 X15.064 Y-7.723 E.00573
G1 X14.819 Y-7.803 E.00808
G1 X14.408 Y-7.837 E.01293
G1 X14.009 Y-7.741 E.01287
G1 X13.798 Y-7.621 E.00761
G1 X13.666 Y-7.71 E.00499
G1 X13.401 Y-7.803 E.00881
G1 X12.988 Y-7.837 E.01299
G1 X12.589 Y-7.741 E.01287
G1 X12.373 Y-7.609 E.00794
G1 X12.178 Y-7.748 E.00751
G1 X11.738 Y-7.817 E.01396
G1 X11.337 Y-7.798 E.01259
G1 X11.337 Y-8.663 E.02712
G1 X47.016 Y-8.654 E1.11869
G1 X47.323 Y-8.565 E.01002
G1 X47.57 Y-8.39 E.00949
G1 X47.745 Y-8.143 E.00949
G1 X47.834 Y-7.702 E.01411
G1 X47.842 Y-1.462 E.19565
G1 X44.017 Y-1.462 E.11993
G1 X44.017 Y-2.251 E.02474
G1 X43.909 Y-2.825 E.01831
G1 X43.648 Y-3.256 E.0158
G1 X43.295 Y-3.576 E.01494
G1 X42.911 Y-3.759 E.01334
G1 X42.432 Y-3.837 E.01522
G1 X41.429 Y-3.837 E.03145
G1 X40.949 Y-3.759 E.01525
G1 X40.546 Y-3.56 E.01409
G1 X40.129 Y-3.154 E.01825
G1 X39.951 Y-2.825 E.01173
G1 X39.852 Y-2.387 E.01408
G1 X39.846 Y-1.462 E.029
G1 X36.017 Y-1.462 E.12006
G1 X36.017 Y-7.271 E.18214
G1 X35.894 Y-7.616 E.01148
M204 P1500
G1 X35.602 Y-7.385 F9000
M204 P1000
;TYPE:External perimeter
G1 F1200
G1 X35.452 Y-7.46 E.00526
G1 X30.828 Y-7.46 E.14498
G1 X30.54 Y-7.38 E.00937
G1 X30.346 Y-7.218 E.00792
;WIDTH:0.45382
G1 X30.287 Y-7.096 E.00463
;WIDTH:0.48764
G1 X30.228 Y-6.974 E.00501
;WIDTH:0.52146
G1 X30.169 Y-6.852 E.00539
G1 X30.169 Y-1.375 E.21793
G1 X30.081 Y-1.136 E.01013
G1 X29.779 Y-1.136 E.01202
G1 X29.691 Y-1.312 E.00783
G1 X29.691 Y-6.851 E.2204
G1 X29.659 Y-6.941 E.0038
;WIDTH:0.485058
G1 X29.572 Y-7.097 E.00657
;WIDTH:0.452529
G1 X29.485 Y-7.253 E.00608
;WIDTH:0.419999
G1 X29.296 Y-7.397 E.00745
G1 X28.747 Y-7.452 E.0173
G1 X28.462 Y-7.334 E.00967
;WIDTH:0.447102
G1 X28.34 Y-7.174 E.00676
;WIDTH:0.474205
G1 X28.217 Y-7.015 E.00721
;WIDTH:0.499727
G1 X28.196 Y-6.933 E.00322
;WIDTH:0.525249
G1 X28.175 Y-6.852 E.00336
G1 X28.169 Y-1.375 E.21966
;WIDTH:0.521544
G1 X28.081 Y-1.136 E.01014
G1 X27.779 Y-1.136 E.01202
G1 X27.691 Y-1.375 E.01014
;WIDTH:0.525249
G1 X27.693 Y-6.852 E.21966
G1 X27.634 Y-7.054 E.00844
;WIDTH:0.479822
G1 X27.56 Y-7.154 E.00452
;WIDTH:0.449911
G1 X27.485 Y-7.253 E.0042
;WIDTH:0.419999
G1 X27.296 Y-7.397 E.00745
G1 X26.747 Y-7.452 E.0173
G1 X26.462 Y-7.334 E.00967
;WIDTH:0.447102
G1 X26.34 Y-7.174 E.00676
;WIDTH:0.474205
G1 X26.217 Y-7.015 E.00721
;WIDTH:0.499727
G1 X26.196 Y-6.933 E.00322
;WIDTH:0.525249
G1 X26.175 Y-6.852 E.00336
G1 X26.169 Y-1.375 E.21966
;WIDTH:0.521544
G1 X26.081 Y-1.136 E.01014
G1 X25.779 Y-1.136 E.01202
G1 X25.691 Y-1.375 E.01014
;WIDTH:0.525249
G1 X25.693 Y-6.852 E.21966
G1 X25.634 Y-7.054 E.00844
;WIDTH:0.479822
G1 X25.56 Y-7.154 E.00452
;WIDTH:0.449911
G1 X25.485 Y-7.253 E.0042
;WIDTH:0.419999
G1 X25.296 Y-7.397 E.00745
G1 X25.032 Y-7.46 E.00851
G1 X15.828 Y-7.46 E.28858
G1 X15.54 Y-7.381 E.00936
G1 X15.346 Y-7.218 E.00794
;WIDTH:0.43517
G1 X15.224 Y-6.933 E.01011
G1 X15.137 Y-7.157 E.00784
;WIDTH:0.424695
G1 X14.868 Y-7.401 E.01153
;WIDTH:0.419999
G1 X14.424 Y-7.459 E.01404
G1 X14.12 Y-7.38 E.00985
G1 X13.926 Y-7.218 E.00792
;WIDTH:0.43517
G1 X13.804 Y-6.933 E.01011
G1 X13.654 Y-7.238 E.01109
;WIDTH:0.419999
G1 X13.456 Y-7.397 E.00796
G1 X13.004 Y-7.459 E.0143
G1 X12.7 Y-7.38 E.00985
;WIDTH:0.422742
G1 X12.455 Y-7.134 E.01097
;WIDTH:0.430148
G1 X12.382 Y-6.933 E.00689
G1 X12.298 Y-7.153 E.00758
;WIDTH:0.422876
G1 X12.013 Y-7.409 E.0121
;WIDTH:0.419999
G1 X11.497 Y-7.452 E.01623
G1 X11.263 Y-7.375 E.00772
;WIDTH:0.420626
G1 X11.086 Y-7.218 E.00743
;WIDTH:0.428318
G1 X10.964 Y-6.907 E.01071
G1 X10.96 Y-7.434 E.01689
;WIDTH:0.419999
G1 X10.96 Y-9.04 E.05035
G1 X47.069 Y-9.031 E1.13217
G1 X47.489 Y-8.91 E.0137
G1 X47.84 Y-8.66 E.01351
G1 X48.09 Y-8.309 E.01351
G1 X48.211 Y-7.889 E.0137
G1 X48.211 Y-7.702 E.00586
G1 X48.22 Y-1.085 E.20747
G1 X43.64 Y-1.085 E.1436
G1 X43.64 Y-2.251 E.03656
G1 X43.559 Y-2.678 E.01363
G1 X43.332 Y-3.05 E.01366
G1 X43.059 Y-3.282 E.01123
G1 X42.767 Y-3.411 E.01001
G1 X42.431 Y-3.46 E.01065
G1 X41.429 Y-3.46 E.03142
G1 X41.141 Y-3.424 E.0091
G1 X40.847 Y-3.309 E.0099
G1 X40.495 Y-3.013 E.01442
G1 X40.323 Y-2.735 E.01025
G1 X40.229 Y-2.384 E.01139
G1 X40.221 Y-1.085 E.04073
G1 X35.64 Y-1.085 E.14363
G1 X35.64 Y-7.271 E.19396
G1 X35.621 Y-7.328 E.00188
M204 P1500
G1 X35.653 Y-7.545 F9000
G1 E-4.9 F1500
;WIPE_START
G1 F7200
G1 X35.452 Y-7.46 E-.04244
G1 X30.828 Y-7.46 E-.91517
G1 X30.54 Y-7.38 E-.05916
G1 X30.346 Y-7.218 E-.05002
G1 X30.287 Y-7.096 E-.02682
G1 X30.228 Y-6.974 E-.02682
G1 X30.169 Y-6.852 E-.02682
G1 X30.169 Y-2.038 E-.95275
;WIPE_END
G1 Z1.4 F9000
G1 X15.22 Y-1.085
G1 Z.2
G1 E7 F1500
M204 P1000
;WIDTH:0.427588
G1 F1200
G1 X15.216 Y-6.851 E.18443
;WIDTH:0.436148
G1 X15.22 Y-6.909 E.0019
M204 P1500
G1 E-4.9 F1500
;WIPE_START
G1 F7200
G1 X15.216 Y-6.851 E-.01151
G1 X15.22 Y-1.085 E-1.14119
;WIPE_END
G1 E-.9473 F1500
G1 Z1.4 F9000
G1 X13.8 Y-1.085
G1 Z.2
G1 E7 F1500
M204 P1000
;WIDTH:0.42759
G1 F1200
G1 X13.796 Y-6.851 E.18443
;WIDTH:0.436148
G1 X13.8 Y-6.909 E.0019
M204 P1500
G1 E-4.9 F1500
;WIPE_START
G1 F7200
G1 X13.796 Y-6.851 E-.01151
G1 X13.8 Y-1.085 E-1.14119
;WIPE_END
G1 E-.9473 F1500
G1 Z1.4 F9000
G1 X12.38 Y-1.085
G1 Z.2
G1 E7 F1500
M204 P1000
;WIDTH:0.427588
G1 F1200
G1 X12.376 Y-6.852 E.18446
;WIDTH:0.431364
G1 X12.378 Y-6.89 E.00123
M204 P1500
G1 E-4.9 F1500
;WIPE_START
G1 F7200
G1 X12.376 Y-6.852 E-.00753
G1 X12.38 Y-1.085 E-1.14139
;WIPE_END
G1 E-.95108 F1500
G1 Z1.4 F9000
G1 X10.96 Y-1.085
G1 Z.2
G1 E7 F1500
M204 P1000
;WIDTH:0.42
G1 F1200
G1 X10.96 Y-6.851 E.18079
;WIDTH:0.428318
G1 X10.964 Y-6.907 E.0018
M204 P1500
G1 E-4.9 F1500
;WIPE_START
G1 F7200
G1 X10.96 Y-6.851 E-.01111
G1 X10.96 Y-1.085 E-1.14119
;WIPE_END
G1 E-.9477 F1500
G1 Z1.4 F9000
G1 X47.721 Y-7.299
G1 Z.2
G1 E7 F1500
M204 P1000
;TYPE:Solid infill
;WIDTH:0.422058
G1 F1200
G1 X46.649 Y-8.371 E.04779
G1 X46.113 Y-8.371 E.0169
G1 X47.552 Y-6.932 E.06416
G1 X47.553 Y-6.395 E.01693
G1 X45.576 Y-8.371 E.08812
G1 X45.04 Y-8.371 E.0169
G1 X47.553 Y-5.858 E.11204
G1 X47.554 Y-5.321 E.01693
G1 X44.504 Y-8.371 E.13598
G1 X43.968 Y-8.372 E.0169
G1 X47.555 Y-4.784 E.15994
G1 X47.556 Y-4.247 E.01693
G1 X43.431 Y-8.372 E.18391
G1 X42.895 Y-8.372 E.0169
G1 X47.556 Y-3.71 E.20783
G1 X47.557 Y-3.173 E.01693
G1 X42.359 Y-8.372 E.23177
G1 X41.822 Y-8.372 E.01693
G1 X47.558 Y-2.637 E.25571
G1 X47.558 Y-2.1 E.01693
G1 X41.286 Y-8.372 E.27963
G1 X40.75 Y-8.372 E.0169
G1 X47.377 Y-1.745 E.29546
G1 X46.841 Y-1.745 E.0169
G1 X40.213 Y-8.372 E.29548
G1 X39.677 Y-8.373 E.0169
G1 X46.305 Y-1.745 E.2955
G1 X45.769 Y-1.745 E.0169
G1 X39.141 Y-8.373 E.2955
G1 X38.604 Y-8.373 E.01693
G1 X42.932 Y-4.045 E.19296
G1 X43.271 Y-3.916 E.01143
G1 X43.454 Y-3.811 E.00665
G1 X43.711 Y-3.605 E.01038
G1 X43.881 Y-3.417 E.00799
G1 X44.09 Y-3.096 E.01208
G1 X44.213 Y-2.764 E.01116
G1 X45.232 Y-1.745 E.04543
G1 X44.696 Y-1.745 E.0169
G1 X44.117 Y-2.324 E.02581
M204 P1500
G1 E-4.9 F1500
;WIPE_START
G1 F7200
G1 X44.696 Y-1.745 E-.16206
G1 X45.232 Y-1.745 E-.10608
G1 X44.213 Y-2.764 E-.28521
G1 X44.09 Y-3.096 E-.07007
G1 X43.881 Y-3.417 E-.07581
G1 X43.711 Y-3.605 E-.05016
G1 X43.454 Y-3.811 E-.06519
G1 X43.271 Y-3.916 E-.04176
G1 X42.932 Y-4.045 E-.07179
G1 X38.745 Y-8.232 E-1.17187
;WIPE_END
G1 Z1.4 F9000
G1 X42.499 Y-3.942
G1 Z.2
G1 E7 F1500
M204 P1000
G1 F1200
G1 X38.068 Y-8.373 E.19755
G1 X37.532 Y-8.373 E.0169
G1 X41.785 Y-4.12 E.18961
G1 X41.423 Y-4.12 E.01141
G1 X41.267 Y-4.102 E.00495
G1 X36.995 Y-8.373 E.19044
G1 X36.459 Y-8.373 E.0169
G1 X40.828 Y-4.004 E.19479
G1 X40.589 Y-3.917 E.00802
G1 X40.46 Y-3.836 E.0048
G1 X35.923 Y-8.374 E.2023
G1 X35.386 Y-8.374 E.01693
G1 X40.162 Y-3.599 E.21291
G1 X40.054 Y-3.504 E.00453
G1 X39.903 Y-3.321 E.00748
G1 X36.3 Y-6.924 E.16064
G1 X36.3 Y-6.388 E.0169
G1 X39.713 Y-2.975 E.15216
G1 X39.591 Y-2.56 E.01364
G1 X36.3 Y-5.852 E.14675
G1 X36.3 Y-5.315 E.01693
G1 X39.567 Y-2.049 E.14563
G1 X39.565 Y-1.745 E.00958
G1 X39.334 Y-1.745 E.00728
G1 X36.3 Y-4.779 E.13527
G1 X36.3 Y-4.243 E.0169
G1 X38.798 Y-1.745 E.11137
G1 X38.262 Y-1.745 E.0169
G1 X36.3 Y-3.707 E.08747
G1 X36.3 Y-3.171 E.0169
G1 X37.726 Y-1.745 E.06358
G1 X37.19 Y-1.745 E.0169
G1 X36.3 Y-2.635 E.03968
G1 X36.3 Y-2.098 E.01693
G1 X36.823 Y-1.575 E.02332
M204 P1500
G1 E-4.9 F1500
;WIPE_START
G1 F7200
G1 X36.3 Y-2.098 E-.14639
G1 X36.3 Y-2.635 E-.10628
G1 X37.19 Y-1.745 E-.24911
G1 X37.726 Y-1.745 E-.10608
G1 X36.3 Y-3.171 E-.39913
G1 X36.3 Y-3.707 E-.10608
G1 X38.262 Y-1.745 E-.54916
G1 X38.798 Y-1.745 E-.10608
G1 X37.613 Y-2.93 E-.33169
;WIPE_END
G1 Z1.4 F9000
G1 X35.274 Y-7.95
G1 Z.2
G1 E7 F1500
M204 P1000
G1 F1200
G1 X34.85 Y-8.374 E.0189
G1 X34.314 Y-8.374 E.0169
G1 X34.568 Y-8.12 E.01132
G1 X34.032 Y-8.12 E.0169
G1 X33.777 Y-8.374 E.01135
G1 X33.241 Y-8.374 E.0169
G1 X33.496 Y-8.12 E.01135
G1 X32.959 Y-8.12 E.01693
G1 X32.705 Y-8.374 E.01132
G1 X32.168 Y-8.375 E.01693
G1 X32.423 Y-8.12 E.01137
G1 X31.887 Y-8.12 E.0169
G1 X31.632 Y-8.375 E.01137
G1 X31.096 Y-8.375 E.0169
G1 X31.351 Y-8.12 E.01137
G1 X30.815 Y-8.119 E.0169
G1 X30.559 Y-8.375 E.01141
G1 X30.023 Y-8.375 E.0169
G1 X30.378 Y-8.02 E.01583
G1 X30.089 Y-7.883 E.01008
G1 X30.033 Y-7.829 E.00245
G1 X29.487 Y-8.375 E.02434
G1 X28.951 Y-8.375 E.0169
G1 X29.239 Y-8.087 E.01284
G1 X28.683 Y-8.107 E.01754
G1 X28.414 Y-8.376 E.01199
G1 X27.878 Y-8.376 E.0169
G1 X28.269 Y-7.984 E.01745
G1 X28.069 Y-7.867 E.0073
G1 X27.958 Y-7.759 E.00488
G1 X27.342 Y-8.376 E.02749
G1 X26.805 Y-8.376 E.01693
G1 X27.086 Y-8.095 E.01253
G1 X26.746 Y-8.112 E.01073
G1 X26.559 Y-8.086 E.00595
G1 X26.269 Y-8.376 E.01293
G1 X25.733 Y-8.376 E.0169
G1 X26.178 Y-7.931 E.01984
G1 X26.069 Y-7.867 E.00398
G1 X25.934 Y-7.736 E.00593
G1 X25.878 Y-7.796 E.00259
G1 X25.599 Y-7.974 E.01043
G1 X25.196 Y-8.376 E.01794
G1 X24.66 Y-8.377 E.0169
G1 X24.917 Y-8.12 E.01146
G1 X24.38 Y-8.12 E.01693
G1 X24.124 Y-8.377 E.01144
G1 X23.587 Y-8.377 E.01693
G1 X23.844 Y-8.12 E.01146
G1 X23.308 Y-8.12 E.0169
G1 X23.051 Y-8.377 E.01146
G1 X22.515 Y-8.377 E.0169
G1 X22.772 Y-8.12 E.01146
G1 X22.236 Y-8.12 E.0169
G1 X21.978 Y-8.377 E.01148
G1 X21.442 Y-8.377 E.0169
G1 X21.699 Y-8.12 E.01146
G1 X21.163 Y-8.12 E.0169
G1 X20.906 Y-8.377 E.01146
G1 X20.369 Y-8.378 E.01693
G1 X20.627 Y-8.12 E.0115
G1 X20.091 Y-8.12 E.0169
G1 X19.833 Y-8.378 E.0115
G1 X19.297 Y-8.378 E.0169
G1 X19.555 Y-8.12 E.0115
G1 X19.019 Y-8.12 E.0169
G1 X18.76 Y-8.378 E.01152
G1 X18.224 Y-8.378 E.0169
G1 X18.482 Y-8.12 E.0115
G1 X17.946 Y-8.12 E.0169
G1 X17.688 Y-8.378 E.0115
G1 X17.151 Y-8.378 E.01693
G1 X17.41 Y-8.12 E.01152
G1 X16.874 Y-8.12 E.0169
G1 X16.615 Y-8.379 E.01155
G1 X16.079 Y-8.379 E.0169
G1 X16.338 Y-8.12 E.01155
G1 X15.804 Y-8.117 E.01683
G1 X15.542 Y-8.379 E.01168
G1 X15.006 Y-8.379 E.0169
G1 X15.368 Y-8.017 E.01614
G1 X15.218 Y-7.956 E.0051
G1 X15.139 Y-8.005 E.00293
G1 X14.852 Y-8.084 E.00938
G1 X14.756 Y-8.093 E.00304
G1 X14.47 Y-8.379 E.01275
G1 X13.934 Y-8.379 E.0169
G1 X14.222 Y-8.091 E.01284
G1 X13.814 Y-7.963 E.01348
G1 X13.397 Y-8.379 E.01857
G1 X12.861 Y-8.38 E.0169
G1 X13.132 Y-8.109 E.01208
G1 X12.985 Y-8.12 E.00465
G1 X12.65 Y-8.055 E.01076
G1 X12.325 Y-8.38 E.01449
G1 X11.788 Y-8.38 E.01693
G1 X12.394 Y-7.774 E.02702
M204 P1500
G1 E-4.9 F1500
;WIPE_START
G1 F7200
G1 X11.788 Y-8.38 E-.16962
G1 X12.325 Y-8.38 E-.10628
G1 X12.65 Y-8.055 E-.09097
G1 X12.985 Y-8.12 E-.06754
G1 X13.132 Y-8.109 E-.02918
G1 X12.861 Y-8.38 E-.07585
G1 X13.397 Y-8.379 E-.10608
G1 X13.814 Y-7.963 E-.11658
G1 X14.222 Y-8.091 E-.08463
G1 X13.934 Y-8.379 E-.08061
G1 X14.47 Y-8.379 E-.10608
G1 X14.756 Y-8.093 E-.08005
G1 X14.852 Y-8.084 E-.01908
G1 X15.139 Y-8.005 E-.05891
G1 X15.218 Y-7.956 E-.0184
G1 X15.368 Y-8.017 E-.03205
G1 X15.006 Y-8.379 E-.10132
G1 X15.542 Y-8.379 E-.10608
G1 X15.804 Y-8.117 E-.07333
G1 X16.338 Y-8.12 E-.10569
G1 X16.079 Y-8.379 E-.07249
G1 X16.615 Y-8.379 E-.10608
